Home-compleks/dist/img/bicycle.svg

<?xml version="1.0" encoding="UTF-8"?>
<svg fill="none" viewBox="0 0 88 80" xmlns="http://www.w3.org/2000/svg">
<g fill="#D4C17F" filter="url(#a)">
<path d="m24 68.001h-18.667c-0.73734 0-1.3333 0.5973-1.3333 1.3333 0 0.7359 0.59594 1.3332 1.3333 1.3332h18.667c0.7373 0 1.3333-0.5973 1.3333-1.3332 0-0.736-0.596-1.3333-1.3333-1.3333z"/>
<path d="m20 65.332c8.8226 0 16-7.1787 16-16 0-4.4173-1.7614-8.5306-4.96-11.583-0.5306-0.5068-1.3774-0.4868-1.8853 0.044-0.508 0.5333-0.488 1.3774 0.044 1.8853 2.6654 2.5441 4.1347 5.9707 4.1347 9.6533 0 7.352-5.9814 13.333-13.333 13.333-7.3518 0-13.333-5.9814-13.333-13.333 0-7.3533 5.9814-13.333 13.333-13.333 0.7374 0 1.3333-0.5973 1.3333-1.3333 0-0.7373-0.5959-1.3332-1.3333-1.3332-8.8226 0-16 7.1773-16 16-1.5e-4 8.8211 7.1772 16 16 16z"/>
<path d="m26.667 27.998h0.676l-7.7027 18.703c-1.2986 0.1774-2.3067 1.2827-2.3067 2.6307 0 1.4706 1.1959 2.6667 2.6667 2.6667 1.4706 0 2.6667-1.196 2.6667-2.6667 0-0.6107-0.2133-1.1653-0.56-1.616l7.5241-18.269 8.4387 12.252c0.416 0.6067 1.2441 0.7612 1.8533 0.3426 0.608-0.4186 0.76-1.2479 0.3414-1.8547l-8.3947-12.188h2.7974c2.2053 0 4-1.7947 4-4 0-2.2067-1.7947-4-4-4h-8c-0.7374 0-1.3333 0.5959-1.3333 1.3333v5.3332c-3e-4 0.7363 0.5958 1.3335 1.3331 1.3335zm1.3333-5.3333h6.6667c0.736 0 1.3333 0.5973 1.3333 1.3333 0 0.7347-0.5973 1.3333-1.3333 1.3333h-6.6667v-2.6666z"/>
<path d="m66.667 34.665c0 0.7359 0.596 1.3333 1.3333 1.3333 7.352 0 13.333 5.98 13.333 13.333 0 7.352-5.9814 13.333-13.333 13.333s-13.333-5.9814-13.333-13.333c0-3.996 1.7694-7.7468 4.8574-10.293 0.5667-0.468 0.6479-1.308 0.1786-1.876-0.468-0.5667-1.3068-0.6506-1.8774-0.1812-3.7014 3.0547-5.8253 7.5547-5.8253 12.351 0 8.8213 7.1773 16 16 16s16-7.1787 16-16c0-8.8226-7.1773-16-16-16-0.7373 0-1.3333 0.5959-1.3333 1.3333z"/>
<path d="m45.333 68.001h-13.333c-0.7373 0-1.3333 0.5973-1.3333 1.3333 0 0.7359 0.596 1.3332 1.3333 1.3332h13.333c0.7373 0 1.3333-0.5973 1.3333-1.3332 1e-4 -0.736-0.596-1.3333-1.3333-1.3333z"/>
<path d="m45.333 42.854v-4.1894c0.7373 0 1.3333-0.5973 1.3333-1.3333 0-0.7373-0.596-1.3333-1.3333-1.3333h-2.6667c-0.7374 0-1.3333 0.596-1.3333 1.3333 0 0.736 0.5959 1.3333 1.3333 1.3333v4.1894c-2.2947 0.5959-4 2.6653-4 5.144 0 2.4774 1.7053 4.5468 4 5.1441v4.1894c-0.7374 0-1.3333 0.5959-1.3333 1.3333 0 0.7359 0.5959 1.3332 1.3333 1.3332h2.6667c0.7373 0 1.3333-0.5973 1.3333-1.3332 0-0.7374-0.596-1.3333-1.3333-1.3333v-4.1894c2.2947-0.5973 4-2.6667 4-5.1441 0-2.4787-1.7053-4.5481-4-5.144zm-1.3333 7.8106c-1.4694 0-2.6667-1.1959-2.6667-2.6667 0-1.4706 1.1973-2.6667 2.6667-2.6667 1.4706 0 2.6667 1.1959 2.6667 2.6667s-1.1961 2.6667-2.6667 2.6667z"/>
<path d="m65.945 47.652c-0.3759 0.46-0.612 1.04-0.612 1.68 0 1.4706 1.1973 2.6667 2.6667 2.6667s2.6667-1.1959 2.6667-2.6667c0-1.32-0.9667-2.4106-2.2253-2.6226l-6.0174-16.044h9.5186c1.596 0 2.5241-1.2759 2.6986-2.4053l1.3321-6.6667c0.0786-0.3921-0.0227-0.7986-0.276-1.1068-0.2533-0.3093-0.6306-0.4879-1.0306-0.4879h-12c-0.7373 0-1.3333 0.5959-1.3333 1.3333 0 0.7359 0.596 1.3332 1.3333 1.3332h10.373l-1.0186 5.1014c-0.02 0.0921-0.0774 0.2214-0.0786 0.2321h-10.519l-4.1747-11.135c-0.0026-0.0053-0.0067-8e-3 -0.0079-0.0133-0.0027-0.0053-0.0015-0.0106-0.0027-0.0147l-2.6667-6.6667c-0.2733-0.68406-1.056-1.012-1.7333-0.74266-0.6841 0.27328-1.0173 1.0494-0.7441 1.7333l2.4294 6.068-5.0147 8.7759c-0.3667 0.6388-0.144 1.4533 0.496 1.8188 0.2079 0.1186 0.4359 0.1759 0.66 0.1759 0.464 0 0.9132-0.2412 1.1586-0.672l3.9253-6.868 3.2079 8.556-10.161 11.431c-0.4906 0.5506-0.44 1.3933 0.1107 1.8826 0.2532 0.2268 0.5693 0.3374 0.8853 0.3374 0.3667 0 0.7332-0.152 0.9959-0.448l9.228-10.38 5.9295 15.815z"/>
<path d="m82.667 68.001h-21.333c-0.7374 0-1.3333 0.5973-1.3333 1.3333 0 0.7359 0.5959 1.3332 1.3333 1.3332h21.333c0.7373 0 1.3332-0.5973 1.3332-1.3332 2e-4 -0.736-0.5957-1.3333-1.3331-1.3333z"/>
<path d="m56 68.001h-2.6667c-0.7374 0-1.3333 0.5973-1.3333 1.3333 0 0.7359 0.5959 1.3332 1.3333 1.3332h2.6667c0.7373 0 1.3333-0.5973 1.3333-1.3332 0-0.736-0.596-1.3333-1.3333-1.3333z"/>
</g>
<defs>
<filter id="a" x="0" y="0" width="88" height="88" color-interpolation-filters="sRGB" filterUnits="userSpaceOnUse">
<feFlood flood-opacity="0" result="BackgroundImageFix"/>
<feColorMatrix in="SourceAlpha" values="0 0 0 0 0 0 0 0 0 0 0 0 0 0 0 0 0 0 127 0"/>
<feOffset dy="4"/>
<feGaussianBlur stdDeviation="2"/>
<feColorMatrix values="0 0 0 0 0 0 0 0 0 0 0 0 0 0 0 0 0 0 0.25 0"/>
<feBlend in2="BackgroundImageFix" result="effect1_dropShadow"/>
<feBlend in="SourceGraphic" in2="effect1_dropShadow" result="shape"/>
</filter>
</defs>
</svg>

<svg width="88" height="80" viewBox="0 0 88 80" fill="none" xmlns="http://www.w3.org/2000/svg">
<g filter="url(#filter0_d)">
<path d="M24 68.0011H5.33328C4.59594 68.0011 4 68.5984 4 69.3344C4 70.0703 4.59594 70.6676 5.33328 70.6676H24C24.7373 70.6676 25.3333 70.0703 25.3333 69.3344C25.3333 68.5984 24.7373 68.0011 24 68.0011Z" fill="#D4C17F"/>
<path d="M20 65.3317C28.8226 65.3317 36 58.153 36 49.3317C36 44.9144 34.2386 40.8011 31.04 37.7491C30.5094 37.2423 29.6626 37.2623 29.1547 37.7931C28.6467 38.3264 28.6667 39.1705 29.1987 39.6784C31.8641 42.2225 33.3334 45.6491 33.3334 49.3317C33.3334 56.6837 27.352 62.665 20.0001 62.665C12.6483 62.665 6.66687 56.6836 6.66687 49.3317C6.66687 41.9784 12.6483 35.9984 20.0001 35.9984C20.7375 35.9984 21.3334 35.4011 21.3334 34.6651C21.3334 33.9278 20.7375 33.3319 20.0001 33.3319C11.1775 33.3319 4.00015 40.5092 4.00015 49.3319C4 58.153 11.1773 65.3317 20 65.3317Z" fill="#D4C17F"/>
<path d="M26.6667 27.9983H27.3427L19.64 46.7009C18.3414 46.8783 17.3333 47.9836 17.3333 49.3316C17.3333 50.8022 18.5292 51.9983 20 51.9983C21.4706 51.9983 22.6667 50.8023 22.6667 49.3316C22.6667 48.7209 22.4534 48.1663 22.1067 47.7156L29.6308 29.4462L38.0695 41.6983C38.4855 42.305 39.3136 42.4595 39.9228 42.0409C40.5308 41.6223 40.6828 40.793 40.2642 40.1862L31.8695 27.9983H34.6669C36.8722 27.9983 38.6669 26.2036 38.6669 23.9983C38.6669 21.7916 36.8722 19.9983 34.6669 19.9983H26.6669C25.9295 19.9983 25.3336 20.5942 25.3336 21.3316V26.6648C25.3333 27.4011 25.9294 27.9983 26.6667 27.9983ZM28 22.665H34.6667C35.4027 22.665 36 23.2623 36 23.9983C36 24.733 35.4027 25.3316 34.6667 25.3316H28V22.665Z" fill="#D4C17F"/>
<path d="M66.6667 34.665C66.6667 35.4009 67.2627 35.9983 68 35.9983C75.352 35.9983 81.3333 41.9783 81.3333 49.3316C81.3333 56.6836 75.3519 62.6648 68 62.6648C60.6481 62.6648 54.6667 56.6834 54.6667 49.3316C54.6667 45.3356 56.4361 41.5848 59.5241 39.0383C60.0908 38.5703 60.172 37.7303 59.7027 37.1623C59.2347 36.5956 58.3959 36.5117 57.8253 36.9811C54.1239 40.0358 52 44.5358 52 49.3317C52 58.153 59.1773 65.3317 68 65.3317C76.8227 65.3317 84 58.153 84 49.3317C84 40.5091 76.8227 33.3317 68 33.3317C67.2627 33.3317 66.6667 33.9276 66.6667 34.665Z" fill="#D4C17F"/>
<path d="M45.3333 68.0011H32C31.2627 68.0011 30.6667 68.5984 30.6667 69.3344C30.6667 70.0703 31.2627 70.6676 32 70.6676H45.3333C46.0706 70.6676 46.6666 70.0703 46.6666 69.3344C46.6667 68.5984 46.0706 68.0011 45.3333 68.0011Z" fill="#D4C17F"/>
<path d="M45.3333 42.8544V38.665C46.0706 38.665 46.6666 38.0677 46.6666 37.3317C46.6666 36.5944 46.0706 35.9984 45.3333 35.9984H42.6666C41.9292 35.9984 41.3333 36.5944 41.3333 37.3317C41.3333 38.0677 41.9292 38.665 42.6666 38.665V42.8544C40.3719 43.4503 38.6666 45.5197 38.6666 47.9984C38.6666 50.4758 40.3719 52.5452 42.6666 53.1425V57.3319C41.9292 57.3319 41.3333 57.9278 41.3333 58.6652C41.3333 59.4011 41.9292 59.9984 42.6666 59.9984H45.3333C46.0706 59.9984 46.6666 59.4011 46.6666 58.6652C46.6666 57.9278 46.0706 57.3319 45.3333 57.3319V53.1425C47.628 52.5452 49.3333 50.4758 49.3333 47.9984C49.3333 45.5197 47.628 43.4503 45.3333 42.8544ZM44 50.665C42.5306 50.665 41.3333 49.4691 41.3333 47.9983C41.3333 46.5277 42.5306 45.3316 44 45.3316C45.4706 45.3316 46.6667 46.5275 46.6667 47.9983C46.6667 49.4691 45.4706 50.665 44 50.665Z" fill="#D4C17F"/>
<path d="M65.9453 47.6517C65.5694 48.1117 65.3333 48.6917 65.3333 49.3317C65.3333 50.8023 66.5306 51.9984 68 51.9984C69.4694 51.9984 70.6667 50.8025 70.6667 49.3317C70.6667 48.0117 69.7 46.9211 68.4414 46.7091L62.424 30.665H71.9426C73.5386 30.665 74.4667 29.3891 74.6412 28.2597L75.9733 21.593C76.0519 21.2009 75.9506 20.7944 75.6973 20.4862C75.444 20.1769 75.0667 19.9983 74.6667 19.9983H62.6667C61.9294 19.9983 61.3334 20.5942 61.3334 21.3316C61.3334 22.0675 61.9294 22.6648 62.6667 22.6648H73.04L72.0214 27.7662C72.0014 27.8583 71.944 27.9876 71.9428 27.9983H61.4242L57.2495 16.8636C57.2469 16.8583 57.2428 16.8556 57.2416 16.8503C57.2389 16.845 57.2401 16.8397 57.2389 16.8356L54.5722 10.1689C54.2989 9.48484 53.5162 9.15687 52.8389 9.42624C52.1548 9.69952 51.8216 10.4756 52.0948 11.1595L54.5242 17.2275L49.5095 26.0034C49.1428 26.6422 49.3655 27.4567 50.0055 27.8222C50.2134 27.9408 50.4414 27.9981 50.6655 27.9981C51.1295 27.9981 51.5787 27.7569 51.8241 27.3261L55.7494 20.4581L58.9573 29.0141L48.7959 40.4447C48.3053 40.9953 48.3559 41.838 48.9066 42.3273C49.1598 42.5541 49.4759 42.6647 49.7919 42.6647C50.1586 42.6647 50.5251 42.5127 50.7878 42.2167L60.0158 31.8367L65.9453 47.6517Z" fill="#D4C17F"/>
<path d="M82.6667 68.0011H61.3333C60.5959 68.0011 60 68.5984 60 69.3344C60 70.0703 60.5959 70.6676 61.3333 70.6676H82.6666C83.4039 70.6676 83.9998 70.0703 83.9998 69.3344C84 68.5984 83.4041 68.0011 82.6667 68.0011Z" fill="#D4C17F"/>
<path d="M56 68.0011H53.3333C52.5959 68.0011 52 68.5984 52 69.3344C52 70.0703 52.5959 70.6676 53.3333 70.6676H56C56.7373 70.6676 57.3333 70.0703 57.3333 69.3344C57.3333 68.5984 56.7373 68.0011 56 68.0011Z" fill="#D4C17F"/>
</g>
<defs>
<filter id="filter0_d" x="0" y="0" width="88" height="88" filterUnits="userSpaceOnUse" color-interpolation-filters="sRGB">
<feFlood flood-opacity="0" result="BackgroundImageFix"/>
<feColorMatrix in="SourceAlpha" type="matrix" values="0 0 0 0 0 0 0 0 0 0 0 0 0 0 0 0 0 0 127 0"/>
<feOffset dy="4"/>
<feGaussianBlur stdDeviation="2"/>
<feColorMatrix type="matrix" values="0 0 0 0 0 0 0 0 0 0 0 0 0 0 0 0 0 0 0.25 0"/>
<feBlend mode="normal" in2="BackgroundImageFix" result="effect1_dropShadow"/>
<feBlend mode="normal" in="SourceGraphic" in2="effect1_dropShadow" result="shape"/>
</filter>
</defs>
</svg>
